X:1
T:Title
%%score 1 { 2 | 3 }
L:1/8
Q:1/4=98
M:4/4
K:Bb
V:1 treble nm="Grand Piano, Soprano"
V:2 bass nm="Choir Pad, My Friend (Edmiaston)"
V:3 bass 
V:1
 [DF]>[DG] [DB]>[DG] [DF]2 [B,D]2 | [DF]2 [DG]2 [B,D]4 | [DF]>[DG] [DB]>[DG] [DF]2 [DG]2 | %3
w: By~Emmett~Sidney~Dean,~1915 * * * * *|||
 [EA]2 [CE]2 [EA]4 | [EA]>[Ec] [EG]>[EA] [EG]4 | [DG]>[DB] [DF]>[DG] [DF]2 F2 | %6
w: |||
 [=EG]>[EA] [EB]>[EG] [Ed]2 [E_d]2 | [Fc]6 z2 | [DF]>[DG] [DB]>[DG] [DF]2 [B,D]2 | %9
w: |||
 [DF]2 [DG]2 [B,D]4 | [DB]>[Ec] [Fd]>[Ec] [DB]2 [Fd]2 | [Ge]2 [Fd]2 [DFG]4 | %12
w: |||
 [=EG]>[EA] [EB]>[EG] [_Ec]4 | [DG]>[DA] [GB]>G [^Fd]4 | [GB]>[FA] [EG]>[EB] [DF]2 [Ec]2 | [DB]8 |] %16
w: ||||
V:2
 B,>B, B,>B, B,2 F,2 | B,2 B,2 F,4 | B,>B, B,>B, B,2 B,2 | F,2 F,2[K:treble] C4 | %4
 C>A, C>C[K:bass] A,4 | B,>F, B,>B, B,4 | B,>A, G,>C B,2 B,2 | A,6 z2 | B,>B, B,>B, B,2 F,2 | %9
 B,2 B,2 F,4 | F,>F, B,>F, F,2 B,2 | B,2 B,2 =B,4 | C>C C>B, A,4 | B,>C B,>B, A,4 | %14
 G,>B, B,>G, A,2 A,2 | B,8 |] %16
V:3
 B,,>B,, B,,>B,, B,,2 B,,2 | B,,2 B,,2 B,,4 | B,,>B,, B,,>B,, B,,2 B,,2 | C,2 C,2 F,4 | %4
 F,>F, F,>F, F,4 | B,,>B,, B,,>B,, B,,2 D,2 | C,>C, C,>C, C,2 C,2 | F,6 z2 | %8
 B,,>B,, B,,>B,, B,,2 B,,2 | B,,2 B,,2 B,,4 | B,,>B,, B,,>B,, B,,2 B,,2 | z2 _A,2 G,4 | %12
 C,>C, C,>C, F,4 | G,>G, G,>G, D,4 | E,>E, E,>E, F,2 [F,,F,]2 | B,,8 |] %16

